assets/svgs/travel-color/TravelColor7.svg

<svg xmlns="http://www.w3.org/2000/svg" data-name="Layer 1" viewBox="0 0 128 128"><circle cx="64" cy="64" r="35.375" fill="#fff"/><path fill="#021768" d="M64.038 29.417a1.25 1.25 0 00-1.25 1.25v4.583a1.25 1.25 0 102.5 0v-4.583a1.25 1.25 0 00-1.25-1.25zM64.038 91.5a1.25 1.25 0 00-1.25 1.25v4.583a1.25 1.25 0 102.5 0V92.75a1.25 1.25 0 00-1.25-1.25zM35.288 62.75h-4.583a1.25 1.25 0 000 2.5h4.583a1.25 1.25 0 000-2.5zM97.371 62.75h-4.583a1.25 1.25 0 000 2.5h4.583a1.25 1.25 0 000-2.5z"/><path fill="#ec3048" d="M64.038 22.333A41.667 41.667 0 10105.7 64a41.667 41.667 0 00-41.662-41.667zm0 75A33.333 33.333 0 1197.371 64a33.333 33.333 0 01-33.333 33.333z"/><path fill="#ec3048" d="M60.506 67.532l18.928 11.863L67.57 60.468l-7.064 7.064z"/><path fill="#c1c1c1" d="M60.506 67.532L48.643 48.604 67.57 60.468l-7.064 7.064z"/></svg>

<svg id="Layer_1" data-name="Layer 1" xmlns="http://www.w3.org/2000/svg" viewBox="0 0 128 128"><title>COMPAS</title><circle cx="64" cy="64" r="35.375" style="fill:#fff"/><path d="M64.038,29.417a1.25,1.25,0,0,0-1.25,1.25V35.25a1.25,1.25,0,1,0,2.5,0V30.667A1.25,1.25,0,0,0,64.038,29.417Z" style="fill:#021768"/><path d="M64.038,91.5a1.25,1.25,0,0,0-1.25,1.25v4.583a1.25,1.25,0,1,0,2.5,0V92.75A1.25,1.25,0,0,0,64.038,91.5Z" style="fill:#021768"/><path d="M35.288,62.75H30.705a1.25,1.25,0,0,0,0,2.5h4.583a1.25,1.25,0,0,0,0-2.5Z" style="fill:#021768"/><path d="M97.371,62.75H92.788a1.25,1.25,0,0,0,0,2.5h4.583a1.25,1.25,0,0,0,0-2.5Z" style="fill:#021768"/><path d="M64.038,22.333A41.667,41.667,0,1,0,105.7,64,41.667,41.667,0,0,0,64.038,22.333Zm0,75A33.333,33.333,0,1,1,97.371,64,33.333,33.333,0,0,1,64.038,97.333Z" style="fill:#ec3048"/><polygon points="60.506 67.532 79.434 79.395 67.57 60.468 60.506 67.532" style="fill:#ec3048"/><polygon points="60.506 67.532 48.643 48.604 67.57 60.468 60.506 67.532" style="fill:#c1c1c1"/></svg>
